packages/core/src/svgs/xrt.svg

<svg width="24" height="24" viewBox="0 0 24 24" fill="none" xmlns="http://www.w3.org/2000/svg">
<g clip-path="url(#clip0_31_21014)">
<path d="M0 0H24V24H0V0Z" fill="#0F0937"/>
<path fill-rule="evenodd" clip-rule="evenodd" d="M12.2248 5.50594C12.3047 5.45741 12.3663 5.38403 12.4005 5.29707C12.4346 5.21011 12.4392 5.11436 12.4137 5.0245C12.3881 4.93465 12.3338 4.85566 12.2591 4.79964C12.1843 4.74361 12.0933 4.71366 11.9998 4.71437C11.9054 4.71463 11.8137 4.74611 11.739 4.80389C11.6643 4.86168 11.6109 4.94254 11.5869 5.03388C11.5629 5.12522 11.5698 5.22192 11.6066 5.30892C11.6433 5.39593 11.7077 5.46836 11.7898 5.51494L5.76627 15.9035C5.6832 15.8611 5.58855 15.847 5.49674 15.8634C5.40492 15.8797 5.32094 15.9256 5.25757 15.994C5.1942 16.0624 5.15491 16.1496 5.14566 16.2424C5.13642 16.3352 5.15773 16.4285 5.20635 16.5081C5.25497 16.5877 5.32825 16.6492 5.41505 16.6833C5.50184 16.7175 5.5974 16.7223 5.6872 16.6972C5.77701 16.672 5.85614 16.6182 5.91257 16.544C5.969 16.4697 5.99964 16.3791 5.99984 16.2858H17.9998C18.0002 16.3992 18.0455 16.5078 18.1258 16.5879C18.2062 16.6679 18.315 16.7128 18.4284 16.7127C18.4868 16.7154 18.5451 16.7061 18.5998 16.6854C18.6544 16.6647 18.7043 16.6331 18.7462 16.5924C18.7882 16.5518 18.8214 16.5029 18.8438 16.4489C18.8662 16.395 18.8773 16.337 18.8764 16.2785C18.8755 16.2201 18.8627 16.1625 18.8387 16.1092C18.8147 16.0559 18.78 16.0081 18.7369 15.9687C18.6937 15.9293 18.6429 15.8992 18.5876 15.8801C18.5324 15.8611 18.4738 15.8536 18.4156 15.8581L12.2248 5.50594ZM18.206 15.9194L11.9998 5.57151L5.92827 16.0484C5.93289 16.0554 5.93732 16.0625 5.94155 16.0698H18.0581C18.0941 16.0081 18.1451 15.9562 18.206 15.9194Z" fill="#03A2E5"/>
<path d="M9 14.1428L11.9983 12.5957L15 14.1428H9Z" fill="#545873"/>
<path d="M12 9L9 14.1429L12 12.6257V9Z" fill="#00A8EB"/>
<path d="M12 9L15 14.1429L12 12.6257V9Z" fill="#B4C0F2"/>
</g>
<defs>
<clipPath id="clip0_31_21014">
<rect width="24" height="24" fill="white"/>
</clipPath>
</defs>
</svg>

<svg xmlns="http://www.w3.org/2000/svg" width="24" height="24" fill="none" viewBox="0 0 24 24"><g clip-path="url(#a)"><path fill="#0F0937" d="M0 0h24v24H0z"/><path fill="#03A2E5" fill-rule="evenodd" d="M12.225 5.506a.427.427 0 1 0-.486-.702.428.428 0 0 0 .05.71l-6.023 10.39a.428.428 0 1 0 .234.382h12a.43.43 0 0 0 .428.427.428.428 0 1 0-.012-.855zm5.981 10.413L12 5.572 5.928 16.048l.014.022h12.116a.4.4 0 0 1 .148-.15" clip-rule="evenodd"/><path fill="#545873" d="m9 14.143 2.998-1.547L15 14.143z"/><path fill="#00A8EB" d="m12 9-3 5.143 3-1.517z"/><path fill="#B4C0F2" d="m12 9 3 5.143-3-1.517z"/></g><defs><clipPath id="a"><path fill="#fff" d="M0 0h24v24H0z"/></clipPath></defs></svg>
